build/img/svg/icon-facebook.svg

<svg width="9" height="19" viewBox="0 0 9 19" fill="none" xmlns="http://www.w3.org/2000/svg">
<path d="M7 3C7.82759 3 8.17241 3 9 3C9 1.89418 9 1.20635 9 0C7.96552 0 7.03448 0 6 0C2.7931 0.201058 1.58621 2.28042 2 6H0V10H2C2 13.1164 2 15.8836 2 19C3.34483 19 4.75862 19 6 19C6 15.8836 6 13.1164 6 10H9V6H6C6 4.99471 6.48276 3.30159 7 3Z" fill="white"/>
</svg>

<svg width="9" height="19" fill="none" xmlns="http://www.w3.org/2000/svg"><path d="M7 3h2V0H6C2.793.201 1.586 2.28 2 6H0v4h2v9h4v-9h3V6H6c0-1.005.483-2.698 1-3z" fill="#fff"/></svg>
